X: 232
T: No_87_Bird_Dance_Song_(j).krn
N: Derived from No_87_Bird_Dance_Song_(j).krn
%%abc-version 2.0
%%abcx-abcm2ps-target-version 5.9.1 (29 Sep 2008)
%%abc-creator hum2abc beta
%%abcx-conversion-date 2019/03/15 08:38:45
%%humdrum-veritas 2377823525
%%humdrum-veritas-data 2027409574
%%linebreak <none>
%%barnumbers 0
L: 1/8
M: 2/4
K: Bb clef=bass
[K:clef=bass][M:2/4]C3/C/ C3/C/ [I:setbarnb 2]| 
C2C2 | 
B,3/G,/ G,3/G,/ | 
C2G,2 | 
F,3/F,/ F,3/F,/ ||  
[M:5/8](G,F,)F,2F, | 
B,3/G,/B,3/G,/-G, ||  
[M:2/4]F,4 | 
(3G,F,F,F,2 ||  
[M:3/4](3B,G,-G, (3B,G,-G, F, z | 
F,3/F,/ F,3/F,/ F,3/F,/ ||  
[M:2/4](3(G,/F,)F,F,2 | 
(3(G,/F,)F,F,2 | 
(3B,G,-G, (3B,G,-G, | 
F,3z :|]  



